X:0425
M:C|
L:1/8
Q:1/4=90 "Slow"
K:D
  D2d>e d3 g |e2E2 TE3 D|F2A2  B>(dTcB)| A2D>E   F2A :|
z|d3  e defd |gfed  e2fe|d2A2  F2   A2 |(Bcd).A  F2A2 |
  D2d2  d3 f |e2E2 TE3 D|F2A2  B(dTcB) | A2D2    F2A2|]

